Sweet-Rainbow/icons/dbeaver.svg

<?xml version="1.0" encoding="UTF-8" standalone="no"?>
<!-- Generator: Gravit.io -->

<svg
   xmlns:dc="http://purl.org/dc/elements/1.1/"
   xmlns:cc="http://creativecommons.org/ns#"
   xmlns:rdf="http://www.w3.org/1999/02/22-rdf-syntax-ns#"
   xmlns:svg="http://www.w3.org/2000/svg"
   xmlns="http://www.w3.org/2000/svg"
   xmlns:sodipodi="http://sodipodi.sourceforge.net/DTD/sodipodi-0.dtd"
   xmlns:inkscape="http://www.inkscape.org/namespaces/inkscape"
   style="isolation:isolate"
   viewBox="0 0 36 36"
   width="48"
   height="48"
   version="1.1"
   id="svg18"
   sodipodi:docname="dbeaver.svg"
   inkscape:version="0.92.4 (5da689c313, 2019-01-14)">
  <metadata
     id="metadata24">
    <rdf:RDF>
      <cc:Work
         rdf:about="">
        <dc:format>image/svg+xml</dc:format>
        <dc:type
           rdf:resource="http://purl.org/dc/dcmitype/StillImage" />
        <dc:title></dc:title>
      </cc:Work>
    </rdf:RDF>
  </metadata>
  <defs
     id="defs22" />
  <sodipodi:namedview
     pagecolor="#ffffff"
     bordercolor="#666666"
     borderopacity="1"
     objecttolerance="10"
     gridtolerance="10"
     guidetolerance="10"
     inkscape:pageopacity="0"
     inkscape:pageshadow="2"
     inkscape:window-width="640"
     inkscape:window-height="480"
     id="namedview20"
     showgrid="false"
     inkscape:zoom="29.365243"
     inkscape:cx="25.325443"
     inkscape:cy="32"
     inkscape:current-layer="svg18"
     units="px" />
  <linearGradient
     id="_lgradient_3"
     x1="-0.014458464"
     y1="0.009839246"
     x2="1.0164566"
     y2="1.072293"
     gradientTransform="matrix(47,0,0,40.159,0.5,0.92)"
     gradientUnits="userSpaceOnUse">
    <stop
       offset="1.3043478260869565%"
       stop-opacity="1"
       style="stop-color:rgb(254,172,94)"
       id="stop2" />
    <stop
       offset="53.04347826086957%"
       stop-opacity="1"
       style="stop-color:rgb(199,121,208)"
       id="stop4" />
    <stop
       offset="99.56521739130434%"
       stop-opacity="1"
       style="stop-color:rgb(75,192,200)"
       id="stop6" />
  </linearGradient>
  <linearGradient
     id="_lgradient_4"
     x1="0.54298681"
     y1="-0.26555973"
     x2="0.51975447"
     y2="0.98335701"
     gradientTransform="matrix(9.221,0,0,5.792,19.39,23.939)"
     gradientUnits="userSpaceOnUse">
    <stop
       offset="3.0434782608695654%"
       stop-opacity="1"
       style="stop-color:rgb(166,124,243)"
       id="stop11" />
    <stop
       offset="98.69565217391305%"
       stop-opacity="1"
       style="stop-color:rgb(88,78,123)"
       id="stop13" />
  </linearGradient>
  <g
     id="g836"
     transform="matrix(0.76595745,0,0,0.76595745,-0.3829788,1.9146473)">
    <path
       id="path9"
       d="m 5.841,10.881 v 0 C 5.638,10.368 5.532,9.82 5.532,9.272 5.51,7.837 6.196,6.488 7.373,5.664 l 1.21,-0.825 c 0.685,-0.471 1.499,-0.717 2.334,-0.706 1.159,-0.02 2.265,0.448 3.068,1.273 -2.777,1.021 -5.329,2.637 -7.457,4.765 -0.234,0.233 -0.461,0.471 -0.687,0.71 z M 3.706,13.692 3.294,12.954 3.23,12.837 c 0,0 0,0 0,-0.011 C 2.631,11.745 2.32,10.524 2.32,9.282 2.299,6.798 3.498,4.454 5.532,3.03 c 0,0 0.011,0 0.011,-0.011 L 6.774,2.184 c 0,0 0,0 0,0 1.22,-0.835 2.666,-1.274 4.132,-1.263 2.238,-0.022 4.368,0.974 5.792,2.698 0,0.01 0.011,0.01 0.011,0.01 l 0.129,0.161 0.552,0.687 c 1.209,-0.22 2.443,-0.334 3.687,-0.334 h 5.846 c 1.047,0 2.088,0.081 3.112,0.238 L 30.509,3.79 30.638,3.629 c 0.011,0 0.011,0 0.011,-0.01 1.423,-1.724 3.554,-2.72 5.792,-2.698 1.477,-0.011 2.912,0.428 4.132,1.263 0,0 0,0 0.011,0 l 1.22,0.835 c 0,0.011 0.011,0.011 0.011,0.011 2.034,1.424 3.233,3.768 3.212,6.252 0,1.242 -0.311,2.463 -0.899,3.544 -0.011,0.011 -0.011,0.011 -0.011,0.011 l -0.064,0.117 -0.112,0.201 c 2.305,3.391 3.559,7.418 3.559,11.576 v 13.137 0 c 0,0.886 -0.72,1.606 -1.606,1.606 v 0 c -0.886,0 -1.606,-0.72 -1.606,-1.606 v 0 -13.137 c 0,-4.603 -1.831,-9.036 -5.085,-12.29 C 35.948,9.186 31.526,7.355 26.923,7.355 h -5.846 c -4.603,0 -9.025,1.831 -12.28,5.086 -3.254,3.254 -5.085,7.687 -5.085,12.29 v 13.137 0 c 0,0.886 -0.72,1.606 -1.606,1.606 v 0 C 1.22,39.474 0.5,38.754 0.5,37.868 v 0 -13.137 c 0,-3.94 1.126,-7.763 3.206,-11.039 z M 33.534,5.243 v 0 c 0.784,-0.724 1.817,-1.129 2.896,-1.11 0.835,-0.011 1.649,0.235 2.334,0.706 l 1.22,0.825 c 1.167,0.824 1.852,2.173 1.831,3.608 0.006,0.368 -0.043,0.736 -0.159,1.088 -0.06,-0.064 -0.121,-0.127 -0.184,-0.189 -2.25,-2.25 -4.974,-3.928 -7.938,-4.928 z m -5.252,28.898 v 4.797 h -3.211 v -3.212 -1.07 h -2.142 v 1.07 3.212 h -3.211 v -4.797 c 0.117,0.01 0.236,0.016 0.356,0.016 1.999,0 3.9,-1.745 3.9,-1.745 h 0.055 c 0,0 1.899,1.742 3.897,1.745 0.12,0 0.239,-0.006 0.356,-0.016 z M 12.759,18.597 c 0,-0.429 0.171,-0.835 0.471,-1.135 0.299,-0.3 0.706,-0.471 1.134,-0.471 0.429,0 0.836,0.171 1.135,0.471 0.3,0.3 0.471,0.706 0.471,1.135 0,0.428 -0.171,0.835 -0.471,1.134 -0.299,0.3 -0.706,0.472 -1.135,0.472 -0.428,0 -0.835,-0.172 -1.134,-0.472 -0.3,-0.299 -0.471,-0.706 -0.471,-1.134 z m 19.271,0 c 0,-0.429 0.171,-0.835 0.471,-1.135 0.299,-0.3 0.706,-0.471 1.135,-0.471 0.428,0 0.835,0.171 1.134,0.471 0.3,0.3 0.471,0.706 0.471,1.135 0,0.428 -0.171,0.835 -0.471,1.134 -0.299,0.3 -0.706,0.472 -1.134,0.472 -0.429,0 -0.836,-0.172 -1.135,-0.472 -0.3,-0.299 -0.471,-0.706 -0.471,-1.134 z m -1.606,14.662 v 0.326 7.495 h -5.353 v 0 0 0 0 h -2.142 -5.353 v -7.495 -0.326 c -0.872,-0.72 -1.427,-1.809 -1.427,-3.028 0,-2.168 1.134,-5.796 3.301,-5.73 l 9.17,0.278 c 2.167,0.065 3.231,3.284 3.231,5.452 0,1.219 -0.555,2.308 -1.427,3.028 z M 9.547,18.597 c 0,-1.274 0.503,-2.506 1.413,-3.405 0.899,-0.91 2.13,-1.413 3.404,-1.413 1.274,0 2.506,0.503 3.405,1.413 0.91,0.899 1.413,2.131 1.413,3.405 0,1.274 -0.503,2.505 -1.413,3.404 -0.899,0.91 -2.131,1.413 -3.405,1.413 -1.274,0 -2.505,-0.503 -3.404,-1.413 -0.91,-0.899 -1.413,-2.13 -1.413,-3.404 z m 19.271,0 c 0,-1.274 0.503,-2.506 1.413,-3.405 0.899,-0.91 2.131,-1.413 3.405,-1.413 1.274,0 2.505,0.503 3.404,1.413 0.91,0.899 1.413,2.131 1.413,3.405 0,1.274 -0.503,2.505 -1.413,3.404 -0.899,0.91 -2.13,1.413 -3.404,1.413 -1.274,0 -2.506,-0.503 -3.405,-1.413 -0.91,-0.899 -1.413,-2.13 -1.413,-3.404 z"
       style="fill:url(#_lgradient_3);fill-rule:evenodd"
       inkscape:connector-curvature="0" />
    <path
       id="path16"
       d="m 28.563,25.413 c 0.463,2.03 -2.563,4.318 -4.515,4.318 -1.951,0 -5.076,-2.264 -4.612,-4.318 0.355,-1.575 2.661,-1.472 4.612,-1.472 1.951,0 4.163,-0.071 4.515,1.472 z"
       style="fill:url(#_lgradient_4)"
       inkscape:connector-curvature="0" />
  </g>
</svg>

<?xml version="1.0" encoding="UTF-8" standalone="no"?><!-- Generator: Gravit.io --><svg xmlns="http://www.w3.org/2000/svg" xmlns:xlink="http://www.w3.org/1999/xlink" style="isolation:isolate" viewBox="0 0 48 48" width="48pt" height="48pt"><linearGradient id="_lgradient_3" x1="-0.014458464773922156" y1="0.009839246119734024" x2="1.0164565923220248" y2="1.0722930524759795" gradientTransform="matrix(47,0,0,40.159,0.5,0.92)" gradientUnits="userSpaceOnUse"><stop offset="1.3043478260869565%" stop-opacity="1" style="stop-color:rgb(254,172,94)"/><stop offset="53.04347826086957%" stop-opacity="1" style="stop-color:rgb(199,121,208)"/><stop offset="99.56521739130434%" stop-opacity="1" style="stop-color:rgb(75,192,200)"/></linearGradient><path d=" M 5.841 10.881 L 5.841 10.881 C 5.638 10.368 5.532 9.82 5.532 9.272 C 5.51 7.837 6.196 6.488 7.373 5.664 L 8.583 4.839 C 9.268 4.368 10.082 4.122 10.917 4.133 C 12.076 4.113 13.182 4.581 13.985 5.406 C 11.208 6.427 8.656 8.043 6.528 10.171 C 6.294 10.404 6.067 10.642 5.841 10.881 Z  M 3.706 13.692 L 3.294 12.954 L 3.23 12.837 C 3.23 12.837 3.23 12.837 3.23 12.826 C 2.631 11.745 2.32 10.524 2.32 9.282 C 2.299 6.798 3.498 4.454 5.532 3.03 C 5.532 3.03 5.543 3.03 5.543 3.019 L 6.774 2.184 C 6.774 2.184 6.774 2.184 6.774 2.184 C 7.994 1.349 9.44 0.91 10.906 0.921 C 13.144 0.899 15.274 1.895 16.698 3.619 C 16.698 3.629 16.709 3.629 16.709 3.629 L 16.838 3.79 L 17.39 4.477 C 18.599 4.257 19.833 4.143 21.077 4.143 L 26.923 4.143 C 27.97 4.143 29.011 4.224 30.035 4.381 L 30.509 3.79 L 30.638 3.629 C 30.649 3.629 30.649 3.629 30.649 3.619 C 32.072 1.895 34.203 0.899 36.441 0.921 C 37.918 0.91 39.353 1.349 40.573 2.184 C 40.573 2.184 40.573 2.184 40.584 2.184 L 41.804 3.019 C 41.804 3.03 41.815 3.03 41.815 3.03 C 43.849 4.454 45.048 6.798 45.027 9.282 C 45.027 10.524 44.716 11.745 44.128 12.826 C 44.117 12.837 44.117 12.837 44.117 12.837 L 44.053 12.954 L 43.941 13.155 C 46.246 16.546 47.5 20.573 47.5 24.731 L 47.5 37.868 L 47.5 37.868 C 47.5 38.754 46.78 39.474 45.894 39.474 L 45.894 39.474 C 45.008 39.474 44.288 38.754 44.288 37.868 L 44.288 37.868 L 44.288 24.731 C 44.288 20.128 42.457 15.695 39.203 12.441 C 35.948 9.186 31.526 7.355 26.923 7.355 L 21.077 7.355 C 16.474 7.355 12.052 9.186 8.797 12.441 C 5.543 15.695 3.712 20.128 3.712 24.731 L 3.712 37.868 L 3.712 37.868 C 3.712 38.754 2.992 39.474 2.106 39.474 L 2.106 39.474 C 1.22 39.474 0.5 38.754 0.5 37.868 L 0.5 37.868 L 0.5 24.731 C 0.5 20.791 1.626 16.968 3.706 13.692 Z  M 33.534 5.243 L 33.534 5.243 C 34.318 4.519 35.351 4.114 36.43 4.133 C 37.265 4.122 38.079 4.368 38.764 4.839 L 39.984 5.664 C 41.151 6.488 41.836 7.837 41.815 9.272 C 41.821 9.64 41.772 10.008 41.656 10.36 C 41.596 10.296 41.535 10.233 41.472 10.171 C 39.222 7.921 36.498 6.243 33.534 5.243 Z  M 28.282 34.141 L 28.282 38.938 L 25.071 38.938 L 25.071 35.726 L 25.071 34.656 L 22.929 34.656 L 22.929 35.726 L 22.929 38.938 L 19.718 38.938 L 19.718 34.141 C 19.835 34.151 19.954 34.157 20.074 34.157 C 22.073 34.157 23.974 32.412 23.974 32.412 L 24.029 32.412 C 24.029 32.412 25.928 34.154 27.926 34.157 C 28.046 34.157 28.165 34.151 28.282 34.141 L 28.282 34.141 Z  M 12.759 18.597 C 12.759 18.168 12.93 17.762 13.23 17.462 C 13.529 17.162 13.936 16.991 14.364 16.991 C 14.793 16.991 15.2 17.162 15.499 17.462 C 15.799 17.762 15.97 18.168 15.97 18.597 C 15.97 19.025 15.799 19.432 15.499 19.731 C 15.2 20.031 14.793 20.203 14.364 20.203 C 13.936 20.203 13.529 20.031 13.23 19.731 C 12.93 19.432 12.759 19.025 12.759 18.597 L 12.759 18.597 L 12.759 18.597 L 12.759 18.597 L 12.759 18.597 Z  M 32.03 18.597 C 32.03 18.168 32.201 17.762 32.501 17.462 C 32.8 17.162 33.207 16.991 33.636 16.991 C 34.064 16.991 34.471 17.162 34.77 17.462 C 35.07 17.762 35.241 18.168 35.241 18.597 C 35.241 19.025 35.07 19.432 34.77 19.731 C 34.471 20.031 34.064 20.203 33.636 20.203 C 33.207 20.203 32.8 20.031 32.501 19.731 C 32.201 19.432 32.03 19.025 32.03 18.597 L 32.03 18.597 L 32.03 18.597 L 32.03 18.597 Z  M 30.424 33.259 L 30.424 33.585 L 30.424 41.08 L 25.071 41.08 L 25.071 41.08 L 25.071 41.08 L 25.071 41.08 L 25.071 41.08 L 22.929 41.08 L 17.576 41.08 L 17.576 33.585 L 17.576 33.259 C 16.704 32.539 16.149 31.45 16.149 30.231 C 16.149 28.063 17.283 24.435 19.45 24.501 L 28.62 24.779 C 30.787 24.844 31.851 28.063 31.851 30.231 C 31.851 31.45 31.296 32.539 30.424 33.259 L 30.424 33.259 Z  M 9.547 18.597 C 9.547 17.323 10.05 16.091 10.96 15.192 C 11.859 14.282 13.09 13.779 14.364 13.779 C 15.638 13.779 16.87 14.282 17.769 15.192 C 18.679 16.091 19.182 17.323 19.182 18.597 C 19.182 19.871 18.679 21.102 17.769 22.001 C 16.87 22.911 15.638 23.414 14.364 23.414 C 13.09 23.414 11.859 22.911 10.96 22.001 C 10.05 21.102 9.547 19.871 9.547 18.597 L 9.547 18.597 L 9.547 18.597 L 9.547 18.597 L 9.547 18.597 Z  M 28.818 18.597 C 28.818 17.323 29.321 16.091 30.231 15.192 C 31.13 14.282 32.362 13.779 33.636 13.779 C 34.91 13.779 36.141 14.282 37.04 15.192 C 37.95 16.091 38.453 17.323 38.453 18.597 C 38.453 19.871 37.95 21.102 37.04 22.001 C 36.141 22.911 34.91 23.414 33.636 23.414 C 32.362 23.414 31.13 22.911 30.231 22.001 C 29.321 21.102 28.818 19.871 28.818 18.597 L 28.818 18.597 L 28.818 18.597 L 28.818 18.597 Z " fill-rule="evenodd" fill="url(#_lgradient_3)"/><linearGradient id="_lgradient_4" x1="0.54298682191" y1="-0.2655597284837264" x2="0.5197544986776772" y2="0.9833570139497876" gradientTransform="matrix(9.221,0,0,5.792,19.39,23.939)" gradientUnits="userSpaceOnUse"><stop offset="3.0434782608695654%" stop-opacity="1" style="stop-color:rgb(166,124,243)"/><stop offset="98.69565217391305%" stop-opacity="1" style="stop-color:rgb(88,78,123)"/></linearGradient><path d=" M 28.563 25.413 C 29.026 27.443 26 29.731 24.048 29.731 C 22.097 29.731 18.972 27.467 19.436 25.413 C 19.791 23.838 22.097 23.941 24.048 23.941 C 25.999 23.941 28.211 23.87 28.563 25.413 L 28.563 25.413 Z " fill="url(#_lgradient_4)"/></svg>
